!!!COM: Anonymous
!!!OTL: Ravy d'amours despourveu de bon sens
!!!AGN: Song; Chanson; Rondeau
!!!SCT: Ano3123
!!!SCA: Ano3123
!!!SMS: Dijon Chansonnier
!!!folio: 132v-133r
!!!SMS2: Wolf
!!!SMS3: Per1013
!!!voices: 3
**kern	**kern	**kern
*staff3	*staff2	*staff1
*Ivox	*Ivox	*Ivox
*I"Contra	*I"Tenor	*I"Discantus
*I'C	*I'T	*I'D
*clefF4	*clefGv2	*clefG2
*k[]	*k[]	*k[]
*M2/1	*M2/1	*M2/1
*met(C)	*met(C)	*met(C)
=1	=1	=1
1A	0r	0r
1G	.	.
=2	=2	=2
1F	0r	1a
1E	.	1g
=3	=3	=3
2r	1A	1f
2D	.	.
2E	1G	2e
2C	.	[2e
=4	=4	=4
1D	1F	2e]
.	.	2d
1AA	1E	2e
.	.	[2c
=5	=5	=5
1r	1F	4c]
.	.	4A
.	.	2A
[1F	1D	2r
.	.	[2a
=6	=6	=6
2F]	1D	2a]
2D	.	2g
1D	1d	2a
.	.	2b
=7	=7	=7
1r	1A	1cc
2E	2G	2b
2G	2B	2g
=8	=8	=8
4F	2c	4a
4E	.	4g
2D	2d	2f
2r	1e	2e
2C	.	2cc
=9	=9	=9
2G	2d	2b
2A	2c	1a
1E	1B	.
.	.	2g#i
=10	=10	=10
2F	1A	0a
2D	.	.
2.A	1F	.
4G	.	.
=11	=11	=11
1E	1G	1r
1D	1A	1f
=12	=12	=12
1c	1E	1g
1d	1D	1a
=13	=13	=13
1G	1C	1e
2.A	1F	1d
4G	.	.
=14	=14	=14
2.B	2.E	1g
8AL	8FL	.
8BJ	8GJ	.
2c	2A	2f
[2B	[2G	[2e
=15	=15	=15
4B]	4G]	4e]
4A	4F	4d
1A	2D	1d
.	1E	.
2G	.	2c#i
=16	=16	=16
1A	0D	0d
1B	.	.
=17	=17	=17
1A	0c	0e
1A	.	.
=18	=18	=18
1D	1d	1f
1D	1d	1f
=19	=19	=19
1r	1A	1e
1F	1r	1c
=20	=20	=20
1BB-	0B-	1r
1BB-	.	1d
=21	=21	=21
1C	1G	1e
1C	1G	1e
=22	=22	=22
1D	1F	1A
1A	1D	[1f
=23	=23	=23
1c	1.A	2f]
.	.	2e
2A	.	2c
[2G	[2B	[2d
=24	=24	=24
2G]	4B]	2d]
.	4A	.
2A	1A	2c
1E	.	1B
.	2G#i	.
=25	=25	=25
0AAN	1.A	1AN
.	.	1r
.	4G	.
.	4F	.
=26	=26	=26
1AA	1E	0c
1AA	1A	.
=27	=27	=27
1D	2.A	1f
.	4B	.
1A	2c	1e
.	2c	.
=28	=28	=28
0D	1d	1d
.	1d	2r
.	.	2a
=29	=29	=29
1r	2f	2a
.	2e	2g
2D	1d	2a
2G	.	2b
=30	=30	=30
1F	1A	1cc
2r	2G	2b
[2D	2A	[2a
=31	=31	=31
2D]	2.F	2a]
2E	.	2g
.	4G	.
1D	2A	1f
.	2B	.
=32	=32	=32
0A	0c	0e
=33	=33	=33
*	*M2/1	*
*	*met(2)	*
*	*rscale:2	*
1D	1d	3%4aV
1E	1B	.
.	.	3%2gZ
=34	=34	=34
2F	1A	3%2fV
2D	.	.
.	.	3e
2r	1G	3c
.	.	3%2dZ
2B	.	.
=35	=35	=35
!! Really 6/2 from here forward (beat-long whole notes should be dotted)
2c	1F	3.AV
2A	.	6B
.	.	3c
1E	1G	3d
.	.	3%2BZ
=36	=36	=36
*M2/1	*	*
*met(3)	*	*
3AA	1A	3%2AV
3BB	.	.
3C	.	3%2r
3D	2F	.
3%2BB	.	3%2dZ
.	2G	.
=37	=37	=37
!!*	*M2/1	*
*	*met(4)	*
*	*rscale:4	*
!	!LO:TX:X=-40:Z=18:t="4" mensuration to end	!
3%2.AA	1A	3%2cV
.	.	3%2.f
3%2.r	1d	.
.	.	3eZ
*rscale:1	*	*
=38	=38	=38
3%2.A	1c	3%2eV
.	.	3%2.a
3%2.F	1d	.
.	.	3gZ
=39	=39	=39
3%2E	3%2eV	3%2gV
3F	3c	3a
3G	3B	3g
3A	3%2AZ	3%2ccZ
3F	.	.
=40	=40	=40
3G	3%2GV	3bV
3B	.	3dd
3%2A	3A	3cc
.	3c	3%2a
3%2E	3%2BZ	.
.	.	3g#iZ
=41	=41	=41
0AAl	0Al	0al
==	==	==
*-	*-	*-
!!!RDF**kern: l=long note in original notation
!!!RDF**kern: i=editorial accidental
!!!RDF**kern: N=signum congruentiae
!!!ENC: Chris Gage 09-28-2016
!!!END: 2018/09/27/
!!!EED: Jesse Rodin
!!!EEV: 2018/11/29/
!!!ONB: Translated from MusicXML and edited on 2018/11/29/ by Craig Sapp
!!muse2ps: C^@{COM}\n@{SMS}, @{folio}; also @{SMS2}, @{SMS3}^v95,95,150c170
